X: 32
T: the CALICAN SCOT
C: Andrew Rankine
R: strathspey
B: "The Complete Andrew Rankine Collection of Scottish Country Dance Tunes" p.38
Z: 2017 John Chambers <jc:trillian.mit.edu>
M: C
L: 1/8
K: C
G2 |\
"C"c2 B<c "F"[A2F2] "C"[G2E2] | "Dm"[FD]>G A>F "G7"[D2B,2] D>C |\
B,>DG>B d2cB | "C"c>G g>e "G7"d2 cB |
"C"c2 B<c "F"[A2F2] "C"[G2E2] | "Dm"[FD]>G A>F "G7"[D2B,2] D>C |\
B,>DG>B d>B g>d | "C"e2 "F"[c2A2F2] "C"[c2G2E2] :|
|: c>B |\
"F"A2 ^G>A c>A d>c | "C"G2 "Cdim"^F>A "C"G2 A>B |\
"Am"c2 A>B c>A e>c | "D7"(3(BcB) (3(ABA) "G7"G>^GA>B |
"C"c2 B<c "F"[A2F2] "C"[G2E2] | "Dm"[FD]>G A>F "G7"[D2B,2] "D7"D>C |\
"G7"B,>DG>B d>B g>d | "C"e2 "F"[c2A2F2] "C"[c2G2E2] :|
